X:3300
T:Concertina Reel
M:4/4
L:1/8
Q:234
S:Midwestern Irish Session Tunes pg.10
R:reel
B:Midwestern Irish Session Tunes pg.10
K:D
F|: (3ABA FA BAFA | A2 FA BAFA | B2 cA BA cA | B2 cA BAFA |
(3ABA FA BAFA | (3ABA FA BAFE | FABc d2 dB | AFEF D3 z :|
|: Addd Addd | Addd BAFA |B2 cA BAcA |B2 cA BA F2 |
|Addd Addd | Addd BAFE | FABc d2 dB |1 AFEF D2 D2 :|2  AFEF D3 z| |


